X:3009
T:Cock O' The North
R:Jig
C:Trad.
O:Scotland
M:6/8
Q:1/8=240
K:D
AG|\
"D"F2F FED|F2A "G"B2A|"D"F2F FED|"A7"E3 A2G|
"D"F2F FED|F2A "G"B2A|"D"F2F "A"EFE|"D"(D3 D2)||
A|\
"D"d2A "G"B2A|"D"d2A "G"B2A|"Bm"F2F FED|"C"(E3 E2) A|
"D"d2A "G"B2A|"D"d2A "G"B2A|"D"F2F "A"EFE|"D"(D3 D2)|]

